X: 150
T: Weila Waile
M:4/4
R:reel
L:1/8
Z:added by Alf warnock alf0@rogers.com - www.alfwarnock.info/alfs
K:D
A2|"D"AFF2 FFAA|A2FF F4| D2F2 A2A2|"G"B4 "D"A2A2|
"A7"AEE2 E2AA|A2EE E4| A2AB A2F2|E4 "D"D4-|D2||

